X:22
T:Botany Bay - Baker
%%VWML:SBG-1-2-265-0
F:http://www.vwml.org/record/SBG/1/2/265
Z:Original Sibelius transcriptions by M. & S. Graebe
M:2/4
I:linebreak $
K:Eb
V:1 treble nm="P1"
V:1
 E/F/ | G>AB G | AFCD | FEE>E | E3 E | GA(3B/c/d/e | ed z f | ecBG | B3 E |$ G>A(3B/c/d/e | %10
 ed z f | ec_BG | B2 z f | e2 BG | A2 F F | GEE/E/E | E4 | %17
T:Botany Bay - Masters
F:http://www.vwml.org/record/SBG/1/2/265
Z:Original Sibelius transcriptions by M. & S. Graebe
M:4/4
I:linebreak $
K:C
V:1 treble nm="P1"
V:1
 G | B B/c/ d/e/ f/d/ | g g g d/e/ | f f g f/e/ | d2 z G | A B c/d/ e/f/ | g2 g d/e/ |$ %7
 f f g f/e/ | d2 z a | g f/e/ f d | c/B/ c/A/ G G | B c A G | G2 z x | %13

